X:14
T:Lous Esclops
M:3/8
L:1/8
N:Anim
N:La Bourre 4th edition 1929, page 31
Z:Steve Mansfield www.lesession.co.uk April 2012
K:Bb
!f!F | B2 B | B F B | d2 d | d B d |
f2 f | e2 e | d2 d | !fermata! c2 c | e  g e | d f d | |
c2 c | !fermata! f2 f | e g e | d f d | c2 c | !fermata! B3 |]

